icon/pk/type-drive.svg

<svg viewBox="0 0 48 48" fill="none" xmlns="http://www.w3.org/2000/svg" height="1em" width="1em">
  <path d="M4 12C4 10.8954 4.89543 10 6 10H42C43.1046 10 44 10.8954 44 12V36C44 37.1046 43.1046 38 42 38H6C4.89543 38 4 37.1046 4 36V12Z" fill="#2F88FF" stroke="black" stroke-width="4" stroke-linecap="round" stroke-linejoin="round"/>
  <path d="M15.4142 32.5858C15.7893 32.2107 16.298 32 16.8284 32H30.2602C30.7376 32 31.1992 32.1708 31.5617 32.4815L38 38H10L15.4142 32.5858Z" fill="#2F88FF" stroke="white" stroke-width="4" stroke-linecap="round" stroke-linejoin="round"/>
  <path d="M39 38H9" stroke="black" stroke-width="4" stroke-linecap="round" stroke-linejoin="round"/>
  <circle cx="15" cy="21" r="4" fill="#43CCF8" stroke="white" stroke-width="4" stroke-linecap="round" stroke-linejoin="round"/>
  <circle cx="33" cy="21" r="4" fill="#43CCF8" stroke="white" stroke-width="4" stroke-linecap="round" stroke-linejoin="round"/>
  <path d="M15 25L33 25" stroke="white" stroke-width="4" stroke-linecap="round" stroke-linejoin="round"/>
  <path d="M15 17L33 17" stroke="white" stroke-width="4" stroke-linecap="round" stroke-linejoin="round"/>
</svg>

<svg width="48" height="48" fill="none" xmlns="http://www.w3.org/2000/svg"><path d="M4 12a2 2 0 0 1 2-2h36a2 2 0 0 1 2 2v24a2 2 0 0 1-2 2H6a2 2 0 0 1-2-2V12Z" fill="#2F88FF" stroke="#000" stroke-width="4" stroke-linecap="round" stroke-linejoin="round"/><path d="M15.414 32.586A2 2 0 0 1 16.828 32H30.26a2 2 0 0 1 1.302.481L38 38H10l5.414-5.414Z" fill="#2F88FF" stroke="#fff" stroke-width="4" stroke-linecap="round" stroke-linejoin="round"/><path d="M39 38H9" stroke="#000" stroke-width="4" stroke-linecap="round" stroke-linejoin="round"/><circle cx="15" cy="21" r="4" fill="#43CCF8" stroke="#fff" stroke-width="4" stroke-linecap="round" stroke-linejoin="round"/><circle cx="33" cy="21" r="4" fill="#43CCF8" stroke="#fff" stroke-width="4" stroke-linecap="round" stroke-linejoin="round"/><path d="M15 25h18M15 17h18" stroke="#fff" stroke-width="4" stroke-linecap="round" stroke-linejoin="round"/></svg>
